X:7889
T:Jenny Lind
R:Polka
O:England
O:USA
M:4/4
K:G
GA|\
B2d2 c2e2|d2b2 ba bd|c2a2 ag ac|B2g2 g2::\
ef|\
g2e2 ef ge|d2B2 BA Bd|c2A2 AB cA|B2G2 G2:|
